src/assets/icons/arrow-right.svg

<svg widh="100%" height="100%" viewBox="0 0 24 24" fill="current"
  xmlns="http://www.w3.org/2000/svg">
  <path fill-rule="evenodd" clip-rule="evenodd" d="M4 12C4 11.4477 4.44772 11 5 11H19C19.5523 11 20 11.4477 20 12C20 12.5523 19.5523 13 19 13H5C4.44772 13 4 12.5523 4 12Z"/>
  <path fill-rule="evenodd" clip-rule="evenodd" d="M11.2929 4.29289C11.6834 3.90237 12.3166 3.90237 12.7071 4.29289L19.7071 11.2929C20.0976 11.6834 20.0976 12.3166 19.7071 12.7071L12.7071 19.7071C12.3166 20.0976 11.6834 20.0976 11.2929 19.7071C10.9024 19.3166 10.9024 18.6834 11.2929 18.2929L17.5858 12L11.2929 5.70711C10.9024 5.31658 10.9024 4.68342 11.2929 4.29289Z"/>
</svg>

<svg xmlns="http://www.w3.org/2000/svg" fill="currentColor" viewBox="0 0 24 24">
  <path fill-rule="evenodd" d="M4 12a1 1 0 0 1 1-1h14a1 1 0 1 1 0 2H5a1 1 0 0 1-1-1Z" clip-rule="evenodd"/>
  <path fill-rule="evenodd" d="M11.293 4.293a1 1 0 0 1 1.414 0l7 7a1 1 0 0 1 0 1.414l-7 7a1 1 0 0 1-1.414-1.414L17.586 12l-6.293-6.293a1 1 0 0 1 0-1.414Z" clip-rule="evenodd"/>
</svg>
